X:1
T:Új a csizmám
C:Hungarian folk song
Z:Public Domain
L:1/4
M:4/4
K:C
V:1 treble nm="Voice"
%%MIDI program 52
V:1
 G A G A | G/F/E/F/ G/ D3/2 | C2 C z!fine! |: c c B B | d/ d3/2 c/ A3/2 |1 G2 G z :|2 %6
w: Új a csiz- mám,|a szög- re van fel- a-|kaszt- va,|Sar- kan- tyú- ját|be- lep- te a|rozs- da,|
w: Mind- egy- szá- lig|le- pe- reg a rozs- da|ró- la.|Ösz- sze ve- rem|oly- an be- tyár||
 G2 c z!D.C.! |] %7
w: |
w: mód- ra,-|

